img/cases_decor-2.svg

<svg width="143" height="141" viewBox="0 0 143 141" fill="none" xmlns="http://www.w3.org/2000/svg">
<g clip-path="url(#clip0)">
<path d="M44.0947 120.065L45.3295 162.527L86.6884 160.797L84.6417 111.872C84.6417 111.872 93.8744 96.4353 96.8695 86.9864C98.7831 80.9492 100.831 77.0624 101.609 70.8116C102.169 66.3031 100.86 64.6384 101.979 60.2349C102.712 57.3494 106.034 56.11 104.94 53.3413C104.308 51.7432 102.355 50.9335 99.9495 50.5716C96.5334 50.0576 94.213 51.5314 91.694 53.8954C88.2124 57.1626 89.5658 61.5125 87.3145 65.723C86.057 68.0746 84.5445 70.7131 84.5445 70.7131C84.5445 70.7131 83.2844 68.9171 83.0572 67.5258C82.5777 64.5893 82.3986 62.7754 83.2814 59.9339C85.6678 52.2522 86.5838 47.0426 87.8057 38.6228C88.8616 31.3468 90.077 27.1521 88.9175 19.8919C88.0636 14.5452 89.7447 7.4557 84.3312 7.3565C80.6962 7.28988 79.783 8.77097 78.0245 11.953C76.1225 15.3946 77.7229 18.7304 76.8437 22.563C76.2602 25.1066 75.2038 26.3276 74.6709 28.8822C74.1277 31.4865 74.7943 33.0947 74.1427 35.6741C73.4135 38.5607 71.7948 39.736 70.9112 42.5791C69.8903 45.8641 69.6512 51.2972 69.6512 51.2972C69.6512 51.2972 67.5314 39.4716 66.5273 28.4108C66.1796 24.5805 64.2997 22.4725 63.1468 18.8033C61.4889 13.527 62.2781 10.9872 60.4526 6.18908C59.3919 3.40116 56.6978 1.49613 53.7841 2.13506C51.6944 2.59333 50.3265 3.63373 49.8536 5.27821C49.3807 6.9227 50.5637 13.8177 50.9824 19.3122C51.3196 23.7371 51.0416 26.0369 51.9865 30.3728C52.4996 32.7269 53.2613 34.9486 53.362 37.3559L54.0179 53.0343C54.0179 53.0343 52.8424 45.3001 51.3237 40.4199C49.9711 36.0735 48.5803 33.7911 47.0757 29.495C45.2263 24.2145 45.7794 24.4042 43.8635 17.4437C43.0859 14.6188 40.3547 12.5739 38.0058 13.3561C35.657 14.1383 34.086 15.3967 33.8616 17.8622C33.4906 21.9396 34.5955 25.1402 35.4519 29.9813C36.0638 33.4398 36.3358 35.6632 36.9176 39.127C37.4646 42.3839 38.5758 43.88 38.8787 47.1687C39.0726 49.273 39.0166 50.4637 39.1049 52.575L39.5346 62.8472L33.2731 68.5251C33.2731 68.5251 24.9827 64.5392 20.2401 61.2173C14.3878 57.1181 6.26045 50.6996 3.1975 55.1603C1.16403 58.1218 2.68924 61.1554 5.18142 63.7428C13.957 72.8535 26.1453 79.3841 26.1453 79.3841C26.1453 79.3841 33.9776 104.782 40.9628 116.404C41.9898 118.113 44.0947 120.065 44.0947 120.065Z" stroke="#33386F"/>
<path d="M27.9962 71.6443C26.6945 73.4628 27.3525 74.2316 25.9221 75.2581C24.4917 76.2847 21.1715 74.6085 18.3584 72.6115C15.5454 70.6146 12.5039 68.6255 8.49112 64.9948C6.47959 63.1747 4.8634 60.9826 5.98346 58.59C6.83588 56.769 8.15564 56.6045 10.2732 56.9762C13.2643 57.5012 17.133 61.4562 22.0378 64.4281C25.2328 66.3639 30.9074 67.513 29.8725 69.3809C28.9618 71.0246 29.0899 70.1163 27.9962 71.6443Z" stroke="#33386F"/>
<path d="M40.0541 14.6942C38.3181 14.3737 36.7583 14.832 35.8213 16.4502C34.7247 18.3438 35.121 20.1043 35.4939 22.3492C35.8096 24.2506 36.7288 27.2155 37.2609 30.4572C37.8025 33.756 37.5342 35.9114 38.2076 39.1813C38.6956 41.5513 39.0221 41.9514 39.7127 44.2782C40.5041 46.9444 40.4433 48.3766 40.6531 53.392C40.7738 56.2768 43.4225 55.3329 45.2013 54.6561C46.9801 53.9793 50.0943 52.2503 50.8319 50.1897C51.6364 47.9421 50.4917 43.4949 49.0978 38.7257C47.9134 34.6735 46.1736 32.054 45.0596 27.9778C44.2476 25.007 43.9012 23.5764 43.1657 20.4493C42.4888 17.5713 42.7146 15.1854 40.0541 14.6942Z" stroke="#33386F"/>
<path d="M57.2759 4.35542C55.8117 3.08408 53.5795 3.21423 52.1174 4.57131C49.9066 6.62331 52.3018 14.4849 52.5022 20.6318C52.6057 23.8059 52.4524 24.5745 52.7991 27.7276C53.1392 30.8211 53.8836 32.2917 54.5526 35.3309C55.8481 41.2165 54.8255 41.9068 55.7312 49.7793C55.9943 52.0667 58.2682 53.0899 60.8842 52.8652C63.095 52.6753 64.603 52.4705 66.3163 51.0554C69.7897 48.1864 64.6718 37.2083 63.8298 27.2662C63.5069 23.4539 61.7622 23.6763 60.8829 17.937C59.9684 11.9672 59.9571 6.68337 57.2759 4.35542Z" stroke="#33386F"/>
<path d="M100.997 57.7911C101.509 54.9336 101.638 53.7909 100.376 53.2237C99.1133 52.6566 95.1786 52.3445 92.2978 55.7149C89.3617 59.1501 90.3905 61.7892 88.7173 66.1997C87.4076 69.6519 87.2443 69.7016 86.4618 71.982C85.0585 76.0711 84.6822 76.6148 83.6817 79.539C82.9574 81.6561 82.6959 83.5331 83.9907 86.924C85.8854 91.886 86.6999 93.4412 88.8232 92.7506C90.644 92.1583 90.4861 91.4661 91.6825 89.0424C92.7926 86.7936 92.5042 87.3181 94.016 83.0595C94.7762 80.9181 95.7564 78.6229 96.2562 76.4059C97.0012 73.102 96.9254 72.6021 97.5995 69.283C98.635 64.1844 100.079 62.9123 100.997 57.7911Z" stroke="#33386F"/>
<path d="M76.6311 110.406C81.8149 107.631 84.37 103.029 84.106 96.7192C83.9204 92.2831 81.0671 89.7547 80.8815 85.3186C80.8815 85.3186 81.8278 64.8587 79.9261 62.4798C78.0243 60.1008 76.389 60.2017 74.0679 58.2298C71.8196 56.3199 72.5669 54.6609 69.802 53.6325C66.6122 52.4459 64.7312 54.9385 61.1435 54.8374C58.4603 54.7619 56.1532 53.6019 53.5364 54.3129C50.4809 55.1432 44.2798 60.31 38.0615 67.1808C34.0088 71.6587 30.1051 77.5756 31.1406 83.0621C32.5842 90.7102 39.8506 109.948 44.1634 115.667C45.4224 117.337 48.9139 118.419 51.4378 118.313C57.2201 118.071 58.5228 115.315 64.0445 113.582C68.8813 112.064 71.4474 113.18 76.6311 110.406Z" stroke="#33386F"/>
<path d="M74.1485 40.4226C73.1498 43.6828 71.1733 50.4746 71.8904 52.469C72.6076 54.4635 73.3207 55.4743 74.84 56.9521C76.9478 59.0024 79.3684 60.9546 81.7198 59.1889C83.5947 57.7809 86.361 41.7392 87.4636 29.3604C87.7023 26.6802 87.031 24.534 86.7444 21.8538C86.3941 18.5772 87.084 15.4448 85.371 13.2327C84.2802 11.824 83.7054 11.8747 82.0881 12.2281C79.9513 12.6951 79.5176 14.2544 78.6201 16.4841C77.5444 19.1562 78.6193 21.1546 78.126 24.0415C77.7242 26.3926 76.8582 27.4623 76.4848 29.8197C76.1508 31.9282 76.6144 33.2338 76.1669 35.3142C75.7263 37.3621 74.7581 38.4324 74.1485 40.4226Z" stroke="#33386F"/>
</g>
<defs>
<clipPath id="clip0">
<rect width="143" height="141" fill="white"/>
</clipPath>
</defs>
</svg>

<svg width="143" height="141" fill="none" xmlns="http://www.w3.org/2000/svg"><g clip-path="url(#clip0)" stroke="#33386F"><path d="M44.095 120.065l1.235 42.462 41.358-1.73-2.046-48.925s9.232-15.437 12.228-24.886c1.913-6.037 3.961-9.924 4.739-16.174.56-4.509-.749-6.174.37-10.577.733-2.886 4.055-4.125 2.961-6.894-.632-1.598-2.585-2.407-4.99-2.77-3.417-.513-5.737.96-8.256 3.324-3.482 3.268-2.128 7.617-4.38 11.828-1.257 2.352-2.77 4.99-2.77 4.99s-1.26-1.796-1.487-3.187c-.48-2.937-.658-4.75.224-7.592 2.387-7.682 3.303-12.891 4.525-21.311 1.056-7.276 2.271-11.47 1.112-18.731-.854-5.347.827-12.436-4.587-12.535-3.635-.067-4.548 1.414-6.306 4.596-1.903 3.442-.302 6.777-1.181 10.61-.584 2.544-1.64 3.765-2.173 6.32-.543 2.604.123 4.212-.528 6.791-.73 2.887-2.348 4.062-3.232 6.905-1.02 3.285-1.26 8.718-1.26 8.718s-2.12-11.825-3.124-22.886c-.347-3.83-2.227-5.939-3.38-9.608-1.658-5.276-.869-7.816-2.694-12.614-1.061-2.788-3.755-4.693-6.669-4.054-2.09.458-3.457 1.499-3.93 3.143-.473 1.645.71 8.54 1.128 14.034.338 4.425.06 6.725 1.005 11.06.513 2.355 1.274 4.577 1.375 6.984l.656 15.678S52.842 45.3 51.324 40.42c-1.353-4.346-2.744-6.629-4.248-10.925-1.85-5.28-1.297-5.09-3.212-12.051-.778-2.825-3.51-4.87-5.858-4.088-2.349.782-3.92 2.04-4.144 4.506-.371 4.078.733 7.278 1.59 12.12.612 3.458.884 5.681 1.466 9.145.547 3.257 1.658 4.753 1.96 8.042.195 2.104.139 3.295.227 5.406l.43 10.272-6.262 5.678s-8.29-3.986-13.033-7.308C14.388 57.118 6.26 50.7 3.198 55.16c-2.034 2.962-.509 5.995 1.983 8.583 8.776 9.11 20.964 15.641 20.964 15.641s7.833 25.398 14.818 37.02c1.027 1.709 3.132 3.661 3.132 3.661z"/><path d="M27.996 71.644c-1.301 1.819-.643 2.588-2.074 3.614-1.43 1.027-4.75-.65-7.564-2.646-2.813-1.997-5.854-3.986-9.867-7.617-2.011-1.82-3.628-4.012-2.508-6.405.853-1.821 2.173-1.986 4.29-1.614 2.991.525 6.86 4.48 11.765 7.452 3.195 1.936 8.87 3.085 7.834 4.953-.91 1.644-.782.735-1.876 2.263zm12.058-56.95c-1.736-.32-3.296.138-4.233 1.756-1.096 1.894-.7 3.654-.327 5.9.316 1.9 1.235 4.865 1.767 8.107.541 3.299.273 5.454.947 8.724.488 2.37.814 2.77 1.505 5.097.791 2.666.73 4.099.94 9.114.12 2.885 2.77 1.94 4.548 1.264 1.78-.677 4.893-2.406 5.63-4.466.805-2.248-.34-6.695-1.733-11.464-1.185-4.053-2.924-6.672-4.038-10.748-.812-2.971-1.159-4.402-1.894-7.529-.677-2.878-.451-5.264-3.112-5.755zM57.276 4.355c-1.464-1.27-3.697-1.14-5.159.216-2.21 2.052.185 9.914.385 16.06.104 3.175-.05 3.944.297 7.097.34 3.093 1.085 4.564 1.754 7.603 1.295 5.886.273 6.576 1.178 14.448.263 2.288 2.537 3.31 5.153 3.086 2.211-.19 3.719-.395 5.432-1.81 3.474-2.869-1.644-13.847-2.486-23.789-.323-3.812-2.068-3.59-2.947-9.329-.915-5.97-.926-11.254-3.607-13.582zm43.721 53.436c.512-2.857.641-4-.621-4.567-1.263-.567-5.197-.88-8.078 2.49-2.936 3.436-1.907 6.075-3.58 10.486-1.31 3.452-1.474 3.502-2.256 5.782-1.404 4.09-1.78 4.633-2.78 7.557-.725 2.117-.986 3.994.309 7.385 1.894 4.962 2.709 6.517 4.832 5.827 1.821-.593 1.663-1.285 2.86-3.709 1.11-2.248.821-1.724 2.333-5.983.76-2.14 1.74-4.436 2.24-6.653.745-3.304.67-3.804 1.344-7.123 1.035-5.099 2.479-6.37 3.397-11.492zm-24.366 52.615c5.184-2.775 7.739-7.377 7.475-13.687-.186-4.436-3.039-6.964-3.224-11.4 0 0 .946-20.46-.956-22.84-1.902-2.378-3.537-2.277-5.858-4.25-2.248-1.91-1.501-3.568-4.266-4.596-3.19-1.187-5.07 1.305-8.659 1.204-2.683-.075-4.99-1.235-7.607-.524-3.055.83-9.256 5.997-15.474 12.868-4.053 4.478-7.957 10.395-6.921 15.881 1.443 7.648 8.71 26.886 13.022 32.605 1.26 1.67 4.75 2.752 7.275 2.646 5.782-.242 7.085-2.998 12.606-4.731 4.837-1.518 7.403-.402 12.587-3.176zm-2.483-69.983c-.998 3.26-2.975 10.052-2.258 12.046.718 1.995 1.43 3.005 2.95 4.483 2.108 2.05 4.528 4.003 6.88 2.237 1.875-1.408 4.641-17.45 5.744-29.829.238-2.68-.433-4.826-.72-7.506-.35-3.277.34-6.41-1.373-8.621-1.09-1.409-1.666-1.358-3.283-1.005-2.137.467-2.57 2.026-3.468 4.256-1.076 2.672 0 4.67-.494 7.557-.402 2.352-1.268 3.421-1.641 5.779-.334 2.108.13 3.414-.318 5.494-.44 2.048-1.409 3.118-2.019 5.109z"/></g><defs><clipPath id="clip0"><path fill="#fff" d="M0 0h143v141H0z"/></clipPath></defs></svg>
